polaris-icons/icons/new-icons/MentionMajor.svg

<svg width="20" height="20" viewBox="0 0 20 20" fill="none" xmlns="http://www.w3.org/2000/svg">
<path fill-rule="evenodd" clip-rule="evenodd" d="M7.73805 4.98665C8.8595 4.48068 10.1182 4.36532 11.313 4.65901C12.5077 4.9527 13.5695 5.63848 14.3285 6.60671C15.0876 7.57495 15.5001 8.76971 15.5001 10C15.5001 10.8745 15.2728 11.4408 14.9991 11.7734C14.7329 12.0968 14.3846 12.25 14.0001 12.25C13.3614 12.25 13.0395 12.0284 12.8384 11.7269C12.6016 11.3717 12.4644 10.7976 12.4644 10.0001V8.87155C12.4646 8.8616 12.4646 8.85164 12.4644 8.84167V7.42872C12.4644 7.0145 12.1286 6.67872 11.7144 6.67872C11.5077 6.67872 11.3205 6.76236 11.1848 6.89766C10.7465 6.59742 10.1721 6.3929 9.42865 6.3929C8.27014 6.3929 7.4768 6.99358 7.00691 7.7454C6.55747 8.46449 6.3929 9.32589 6.3929 10C6.3929 10.6742 6.55747 11.5356 7.00691 12.2547C7.4768 13.0065 8.27014 13.6072 9.42865 13.6072C10.3799 13.6072 11.0843 13.1395 11.548 12.6699C11.5715 12.6461 11.5945 12.6222 11.617 12.5982C12.1318 13.3431 12.943 13.75 14.0001 13.75C14.8239 13.75 15.6006 13.4032 16.1573 12.7266C16.7065 12.0592 17.0001 11.1255 17.0001 10C17.0001 8.43418 16.4751 6.91356 15.509 5.68127C14.5429 4.44898 13.1916 3.57617 11.671 3.20238C10.1505 2.82859 8.54846 2.97541 7.12116 3.61937C5.69386 4.26333 4.52369 5.36724 3.79772 6.75461C3.07175 8.14198 2.8319 9.73269 3.11653 11.2724C3.40117 12.8122 4.19383 14.212 5.36781 15.2482C6.54178 16.2843 8.02927 16.897 9.59246 16.9881C11.1557 17.0793 12.7043 16.6437 13.9907 15.751C14.331 15.5149 14.4155 15.0476 14.1793 14.7073C13.9432 14.367 13.4759 14.2825 13.1356 14.5187C12.1248 15.2201 10.908 15.5623 9.67979 15.4907C8.45157 15.4191 7.28283 14.9377 6.36042 14.1236C5.43801 13.3094 4.8152 12.2096 4.59156 10.9998C4.36792 9.78997 4.55637 8.54013 5.12678 7.45005C5.69718 6.35997 6.6166 5.49262 7.73805 4.98665ZM11.0145 10.8645C10.9792 10.58 10.9644 10.2896 10.9644 10.0001V9.02395C10.9532 8.9988 10.9422 8.97393 10.9313 8.94928C10.8415 8.74525 10.7584 8.55665 10.5785 8.35107C10.3789 8.12299 10.0567 7.8929 9.42865 7.8929C8.87285 7.8929 8.52332 8.14937 8.27892 8.5404C8.01406 8.96417 7.89292 9.53135 7.89292 10C7.89292 10.4687 8.01406 11.0359 8.27892 11.4597C8.52332 11.8507 8.87285 12.1072 9.42865 12.1072C9.84882 12.1072 10.192 11.9082 10.4807 11.6159C10.7436 11.3497 10.9208 11.0446 11.0145 10.8645Z" fill="#4A4A4A"/>
</svg>

<svg viewBox="0 0 20 20" xmlns="http://www.w3.org/2000/svg"><path fill-rule="evenodd" d="M7.738 4.987a5.5 5.5 0 0 1 7.762 5.013c0 .874-.227 1.44-.5 1.773a1.255 1.255 0 0 1-1 .477c-.639 0-.96-.222-1.162-.523-.236-.355-.374-.93-.374-1.727v-2.571a.75.75 0 0 0-1.28-.531c-.438-.3-1.012-.505-1.755-.505-1.159 0-1.952.6-2.422 1.352-.45.72-.614 1.58-.614 2.255 0 .674.164 1.536.614 2.255.47.752 1.263 1.352 2.422 1.352.95 0 1.655-.467 2.119-.937l.069-.072c.515.745 1.326 1.152 2.383 1.152.824 0 1.6-.347 2.157-1.023.55-.668.843-1.601.843-2.727a7 7 0 1 0-3.01 5.751.75.75 0 1 0-.854-1.232 5.5 5.5 0 1 1-5.398-9.532Zm3.276 5.877a7.04 7.04 0 0 1-.05-.864v-.976l-.033-.075c-.09-.204-.173-.392-.352-.598-.2-.228-.522-.458-1.15-.458-.556 0-.906.256-1.15.647-.265.424-.386.991-.386 1.46s.121 1.036.386 1.46c.244.39.594.647 1.15.647.42 0 .763-.199 1.052-.491.263-.266.44-.571.534-.752Z" fill="#5C5F62"/></svg>
